assets/sonr-icons/thumb-down.svg

<svg xmlns="http://www.w3.org/2000/svg" width="24" height="24" fill="none"><path fill="currentColor" d="M21.002 11a3 3 0 0 1-3 3h-3V3h3a3 3 0 0 1 3 3zm-3 1a1 1 0 0 0 1-1V6a1 1 0 0 0-1-1h-1v7z"/><path fill="currentColor" d="M13.153 19.773a2.5 2.5 0 0 1-3.499.832l-.329-.21a2.5 2.5 0 0 1-1.104-2.596L8.781 15H6a3 3 0 0 1-2.966-3.454l.918-6A3 3 0 0 1 6.918 3h10.083v9.452c0 .538-.145 1.066-.418 1.528l-3.43 5.792zm-2.421-.853a.5.5 0 0 0 .7-.166l3.43-5.792c.091-.155.139-.33.139-.509V5.001H6.918c-.494 0-.913.361-.989.849l-.918 6a1 1 0 0 0 .988 1.151H9.39a1.5 1.5 0 0 1 1.471 1.794l-.679 3.397a.5.5 0 0 0 .22.519l.329.211z"/></svg>

<svg xmlns="http://www.w3.org/2000/svg" width="24" height="24" fill="none" viewBox="0 0 24 24"><path fill="#000" d="M21.002 11C21.002 12.657 19.659 14 18.002 14H15.002V3H18.002C19.659 3 21.002 4.343 21.002 6V11ZM18.002 12C18.554 12 19.002 11.552 19.002 11V6C19.002 5.448 18.554 5 18.002 5H17.002V12H18.002Z"/><path fill="#000" d="M13.153 19.773C12.432 20.99 10.846 21.368 9.654 20.605L9.325 20.395C8.457 19.84 8.019 18.809 8.221 17.799L8.781 15H6C4.162 15 2.756 13.363 3.034 11.546L3.952 5.546C4.176 4.081 5.436 3 6.918 3H17.001V12.452C17.001 12.99 16.856 13.518 16.583 13.98L13.153 19.772V19.773ZM10.732 18.92C10.971 19.072 11.288 18.997 11.432 18.754L14.862 12.962C14.953 12.807 15.001 12.632 15.001 12.453V5.001H6.918C6.424 5.001 6.005 5.362 5.929 5.85L5.011 11.85C4.918 12.455 5.387 13.001 5.999 13.001H9.39C10.337 13.001 11.047 13.867 10.861 14.795L10.182 18.192C10.141 18.394 10.229 18.6 10.402 18.711L10.731 18.922L10.732 18.92Z"/></svg>
